app/assets/images/sephora_style_guide/svgs/order_status/with-driver.svg

<svg version="1.1" xmlns="http://www.w3.org/2000/svg" viewBox="0 0 100 100">
<g id="Icons" stroke="none" stroke-width="1" fill="none" fill-rule="evenodd">
<g id="ordershippingicon_12" transform="translate(-7.000000, -9.000000)">
<g id="driver" transform="translate(7.000000, 5.000000)">
<g id="Group-3" transform="translate(0.000000, 34.158316)">
<mask id="mask-2" fill="white">
<polygon id="path-1" points="0 0.833713215 77.8959474 0.833713215 77.8959474 52.1052632 0 52.1052632"></polygon>
</mask>
<g id="Clip-2"></g>
<path d="M21.1154211,52.0266316 C19.5948947,52.1071579 -0.00142105263,52.1071579 -0.00142105263,52.1071579 L5.01015789,23.8424211 C5.39857895,21.7345263 5.77752632,19.6550526 6.16594737,17.5803158 C6.82436842,14.0418947 7.44015789,10.5034737 8.16489474,6.984 C8.91805263,3.31294737 12.0206842,0.845052632 15.777,0.840315789 C23.337,0.830842105 30.9017368,0.830842105 38.4617368,0.845052632 C39.1059474,0.845052632 39.7643684,0.906631579 40.3943684,1.02978947 C42.9285789,1.54136842 44.7001579,2.99084211 45.7706842,5.35452632 C47.7885789,9.80715789 49.8443684,14.2408421 51.8859474,18.684 C53.5533158,22.3218947 55.2301579,25.9597895 56.8833158,29.6118947 C57.0585789,30.0050526 57.2622632,30.1424211 57.7075263,30.1424211 C64.1875263,30.1234737 70.6675263,30.1282105 77.1475263,30.1282105 L77.8959474,30.1282105 C76.9675263,31.2413684 76.1148947,32.2645263 75.2622632,33.2829474 C73.6943684,35.1492632 72.1217368,37.0155789 70.5633158,38.9008421 C70.2554211,39.2750526 69.9191053,39.4408421 69.417,39.474 C66.0206842,39.6729474 62.6243684,39.9145263 59.2280526,40.1371579 C56.5991053,40.3076842 53.9654211,40.4782105 51.3317368,40.6487368 C51.2322632,40.6534737 51.1280526,40.6345263 51.0380526,40.6629474 C49.9059474,41.0324211 49.4227895,40.4166316 48.9064737,39.4929474 C45.5006842,33.3776842 42.0333158,27.3050526 38.5848947,21.2182105 C38.5091053,21.0855789 38.4333158,20.9482105 38.2485789,20.8297895 C38.1964737,21.6587368 38.1348947,22.4829474 38.0922632,23.3118947 C37.8791053,27.3761053 37.6801579,31.4450526 37.4622632,35.5187368 C37.2491053,39.5450526 37.0454211,43.5761053 36.7754211,47.5976842 C36.6096316,50.1176842 34.6533158,52.0218947 32.1333158,52.0692632 C28.5522632,52.1355789 24.9664737,52.0882105 21.3806842,52.0882105 C21.3238421,52.0882105 21.267,52.0597895 21.1154211,52.0266316" id="Fill-1" fill="#231F20" mask="url(#mask-2)"></path></g>
<path d="M71.8631053,39.3901579 C69.0683684,39.3901579 66.2736316,39.3948947 63.4788947,39.3806842 C62.811,39.3806842 62.3752105,39.5180526 62.3894211,40.3233158 C62.4178421,42.0522632 62.4083684,43.7717368 62.3894211,45.4959474 C62.3846842,46.2254211 62.7304737,46.5333158 63.441,46.5333158 C69.0304737,46.5285789 74.6246842,46.5285789 80.2141579,46.5333158 C80.9673158,46.5333158 81.3320526,46.2017368 81.3225789,45.4154211 C81.2988947,43.8475263 81.2704737,42.2748947 81.3320526,40.707 C81.3699474,39.717 81.0383684,39.3475263 80.0199474,39.3712105 C77.301,39.4233158 74.5820526,39.3854211 71.8631053,39.3901579 M85.2588947,48.5133158 C85.2588947,51.9759474 85.2636316,55.4433158 85.2588947,58.9059474 C85.2541579,60.4785789 84.6525789,61.3833158 83.3641579,61.7338421 C83.0467895,61.8191053 82.7057368,61.8333158 82.3741579,61.8333158 C75.3636316,61.8427895 68.3578421,61.8427895 61.3520526,61.8380526 C59.4383684,61.8380526 58.4294211,60.8527895 58.4246842,58.9343684 C58.4104737,51.9096316 58.4152105,44.8754211 58.4246842,37.8506842 C58.4246842,36.0080526 59.4478421,35.0133158 61.2904737,35.0133158 C68.3199474,35.0085789 75.3446842,35.0085789 82.3741579,35.0133158 C84.2641579,35.0133158 85.2494211,35.9796316 85.2588947,37.8838421 C85.2683684,41.427 85.2588947,44.9701579 85.2588947,48.5133158" id="Fill-4" fill="#231F20"></path>
<g id="Group-8" transform="translate(9.473684, 1.000421)">
<mask id="mask-4" fill="white">
<polygon id="path-3" points="3.77621053 3.73736842 34.6367368 3.73736842 34.6367368 15.6628421 3.77621053 15.6628421"></polygon>
</mask>
<g id="Clip-7"></g>
<path d="M34.6367368,15.6628421 L3.77621053,15.6628421 C3.87094737,14.8812632 3.87094737,14.1138947 4.06515789,13.3938947 C5.32989474,8.70915789 8.23831579,5.53073684 12.942,4.19021053 C17.3141053,2.94442105 21.0277895,4.33231579 24.2298947,7.35915789 C25.812,8.86073684 26.9062105,10.6891579 27.5598947,12.7733684 C27.6830526,13.1617895 27.8630526,13.2944211 28.2656842,13.2802105 C29.3883158,13.2517895 30.5109474,13.2517895 31.6335789,13.2896842 C31.8941053,13.2944211 32.2067368,13.4223158 32.4056842,13.5928421 C33.1351579,14.2275789 33.822,14.9002105 34.6367368,15.6628421" id="Fill-6" fill="#231F20" mask="url(#mask-4)"></path></g>
<path d="M13.3417895,19.1842105 L37.4570526,19.1842105 C37.6796842,25.1242105 33.3596842,31.1305263 25.596,31.2584211 C18.4765263,31.3721053 13.266,26.1852632 13.3417895,19.1842105" id="Fill-9" fill="#231F20"></path></g></g></g>
</svg>

<svg xmlns="http://www.w3.org/2000/svg" viewBox="0 0 100 100"><g fill="none" fill-rule="evenodd"><g transform="translate(0 30.158)"><mask id="a" fill="#fff"><path d="M0 .834h77.896v51.271H0z"/></mask><path d="M21.115 52.027c-1.52.08-21.116.08-21.116.08L5.01 23.842c.389-2.107.768-4.187 1.156-6.262.658-3.538 1.274-7.077 1.999-10.596C8.918 3.313 12.02.845 15.777.84c7.56-.01 15.125-.01 22.685.005.644 0 1.302.062 1.932.185 2.535.511 4.306 1.96 5.377 4.325 2.018 4.452 4.073 8.886 6.115 13.329 1.667 3.638 3.344 7.276 4.997 10.928.176.393.38.53.825.53 6.48-.019 12.96-.014 19.44-.014h.748c-.928 1.113-1.781 2.137-2.634 3.155-1.568 1.866-3.14 3.733-4.699 5.618-.308.374-.644.54-1.146.573-3.396.199-6.793.44-10.189.663l-7.896.512c-.1.004-.204-.014-.294.014-1.132.37-1.615-.246-2.132-1.17-3.405-6.115-6.873-12.188-10.321-18.275-.076-.132-.152-.27-.336-.388-.053.829-.114 1.653-.157 2.482-.213 4.064-.412 8.133-.63 12.207-.213 4.026-.417 8.057-.687 12.079-.165 2.52-2.122 4.424-4.642 4.471-3.58.067-7.167.02-10.752.02-.057 0-.114-.03-.266-.062" fill="#231F20" mask="url(#a)"/></g><path d="M71.863 35.39c-2.795 0-5.59.005-8.384-.01-.668 0-1.104.138-1.09.943.029 1.73.02 3.449 0 5.173-.004.73.341 1.037 1.052 1.037 5.59-.004 11.184-.004 16.773 0 .753 0 1.118-.331 1.109-1.118-.024-1.567-.053-3.14.01-4.708.037-.99-.295-1.36-1.313-1.336-2.719.052-5.438.014-8.157.02m13.396 9.122c0 3.463.005 6.93 0 10.393-.005 1.573-.606 2.477-1.895 2.828-.317.085-.658.1-.99.1-7.01.009-14.016.009-21.022.004-1.914 0-2.923-.985-2.927-2.904a6256.24 6256.24 0 010-21.083c0-1.843 1.023-2.838 2.865-2.838 7.03-.004 14.055-.004 21.084 0 1.89 0 2.875.967 2.885 2.87.01 3.544 0 7.087 0 10.63" fill="#231F20"/><g transform="translate(9.474 -3)"><mask id="b" fill="#fff"><path d="M3.776 3.737h30.86v11.926H3.777z"/></mask><path d="M34.637 15.663H3.777c.094-.782.094-1.55.288-2.27C5.33 8.71 8.238 5.532 12.942 4.19c4.372-1.246 8.086.142 11.288 3.17 1.582 1.5 2.676 3.33 3.33 5.413.123.389.303.521.706.507a57.027 57.027 0 013.368.01c.26.004.573.132.772.303.73.635 1.416 1.307 2.23 2.07" fill="#231F20" mask="url(#b)"/></g><path d="M13.342 15.184h24.115c.223 5.94-4.097 11.947-11.861 12.074-7.12.114-12.33-5.073-12.254-12.074" fill="#231F20"/></g></svg>
